!!!ONB: MCCC : IJH0429_03 : Extracted Monophonic Melody
!!!COM: Haydn, Joseph
!!!OPR: String Quartet in D major
!!!OMV: 3
!!!SCT: Hob.III:42 ; Op.33 No.6
!!!ODT: 1781///
**kern
*thru
*k[f#c#]
*D:
*clefF
*M3/4
4a
=1
4g
4f#
4f#
=2
2f#
4b
=3
4a
4g#
4g#
=4
2a
4g
=5
4f#
4e
4b
=6
4a
4g
4ee
=7
4dd
4cc#
4cc#
=8
4dd
2r
=9
4r
4r
4bb
=10
4aa
4gg
4r
=11
4r
4r
4aa
=12
4gg
4ff#
4ddd
=13
4ccc#
4bb
4aa
=14
4aa
8gg
8ee
8ff#
8dd
=15
2a
4r
=16
4r
4r
4b
=17
4a
4g
4g
=18
2g
4a
=19
4g
4f#
4f#
=20
2f#
4b
=21
4a
4g#
4g#
=22
2a
4g
=23
4f#
4e
4b
=24
4a
4g
4ee
=25
4dd
4cc#
4cc#
=26
4dd
2r
=27
4r
4ff#
4ff#
=28
4gg
4gg
4r
=29
4r
4ee
4ee
=30
4ff#
4ff#
4r
=31
4r
4ddd
4ddd
=32
2ddd
4ccc#
=33
4bb
4aa
4gg#
=34
2aa
8gg#
8aa
=35
4a
8bb
8aa
8gg
8ff#
=36
4gg
4gg
8ff#
8gg
=37
4a
8aa
8gg
8ff#
8ee
=38
4ff#
4ff#
8gg
8ff#
=39
8bb
8aa
8gg
8ff#
8bb
8aa
=40
8gg
8ff#
8bb
8aa
8gg
8ff#
=41
8bb
8aa
8gg
8ff#
8ee
8dd
=42
2a
8ccc#
8ddd
=43
4dd
8ddd
8ccc#
8bb
8aa
=44
4gg
4gg
8ff#
8gg
=45
4a
8aa
8gg
8ff#
8ee
=46
4dd
4dd
8cc#
8dd
=47
4d
8c#
8d
8e
8f#
=48
8g
8a
8b
8cc#
8dd
8ee
=49
4ff#
4aa
4cc#
=50
4dd
2r
==
*-
